white/tnc.svg

<!-- Generated by IcoMoon.io -->
<svg version="1.1" xmlns="http://www.w3.org/2000/svg" width="32" height="32" viewBox="0 0 32 32">
<title>tnc</title>
<path fill="#fff" d="M16 32c-8.837 0-16-7.163-16-16s7.163-16 16-16 16 7.163 16 16-7.163 16-16 16zM18.226 13.804l-1.83 3.114 2.132 3.481-8.412-0.002-1.87 3.103h15.613zM12.476 16.060h3.659l2.001-3.555 4.12 7.16h3.744l-7.797-13.123zM17.361 19.679l-1.83-3.115h-4.167l4.303-6.918-1.86-3.146-7.807 13.125z"></path>
</svg>

<svg height="32" width="32" xmlns="http://www.w3.org/2000/svg"><path d="M16 32C7.163 32 0 24.837 0 16S7.163 0 16 0s16 7.163 16 16-7.163 16-16 16zm2.226-18.196l-1.83 3.114 2.132 3.481-8.412-.002-1.87 3.103h15.613zm-5.75 2.256h3.659l2.001-3.555 4.12 7.16H26L18.203 6.542zm4.885 3.619l-1.83-3.115h-4.167l4.303-6.918-1.86-3.146L6 19.625z" fill="#fff"/></svg>
